X:1
T:What Shall I do gin my Hoggie Die
M:4/4
L:1/8
K:C
 z4 z2C-D| E2 G2 G2 cd| e2 e2 d2c-d| e2 e2 d2 c-d/2-e/2| d4 D2C-D|\
 E2 G2 G2c-d| e2 e2 d2c-d|e-dc-Ac-AG-E| D4 C2C-D| E2 G2 G2E-G|A-GE-GA-G-E-G|\
A-G EGA-GE-G| _B4 D2G-F| E2D-C G2 G2| A2A/2-B/2 c B2A-G|A-Bc-de-fe-d|\
 c4 C2 z2|
